docs/img/all-services/3.svg

<svg width="80" height="80" viewBox="0 0 80 80" fill="none" xmlns="http://www.w3.org/2000/svg">
<path d="M76.9325 0H3.07031C1.56266 0 0.335938 1.22672 0.335938 2.73438V23.9945C0.335938 24.6417 0.860469 25.1664 1.50781 25.1664C2.15516 25.1664 2.67969 24.6417 2.67969 23.9945V2.73438C2.67969 2.51906 2.85484 2.34375 3.07031 2.34375H33.3405V35.1128C31.1872 34.2492 29.3819 32.7294 28.2214 30.7528C26.0959 27.1325 22.17 25.025 17.973 25.2506C15.2225 25.3991 12.6292 26.5683 10.6706 28.5428C8.71234 30.517 7.56375 33.1198 7.43672 35.8714C7.29422 38.9564 8.38687 41.8822 10.5136 44.1094C11.9003 45.5616 13.6025 46.5855 15.4717 47.1247C13.8286 48.9764 13.5877 51.5191 14.4512 53.8414C14.1653 54.1453 13.9378 54.8875 13.3409 54.6827L12.6962 54.4605C11.1923 53.9436 9.53281 54.7417 8.99797 56.2397L8.52281 57.5681C7.99281 59.0509 8.02547 60.6723 8.61469 62.1338L10.3411 66.4131C10.4578 66.7028 10.517 67.0073 10.517 67.3186V77.6562H3.07031C2.85484 77.6562 2.67969 77.4809 2.67969 77.2656V29.4633C2.67969 28.8161 2.15516 28.2914 1.50781 28.2914C0.860469 28.2914 0.335938 28.8161 0.335938 29.4633V77.2656C0.335938 78.7733 1.56266 80 3.07031 80H76.9326C78.4403 80 79.667 78.7733 79.667 77.2656V2.73438C79.6669 1.22672 78.4403 0 76.9325 0ZM35.6842 18.7973C37.0484 19.3959 38.5247 19.6962 40.0014 19.6962C41.4781 19.6962 42.9544 19.3959 44.3186 18.7973V26.6427C41.7016 28.2388 38.3012 28.2388 35.6842 26.6427V18.7973ZM44.3186 16.1612C41.7016 17.7572 38.3012 17.7572 35.6842 16.1612V8.31594C37.0484 8.91453 38.5247 9.21484 40.0014 9.21484C41.4781 9.21484 42.9544 8.91453 44.3186 8.31594V16.1612ZM40.0014 30.1778C41.4781 30.1778 42.9544 29.8775 44.3186 29.2789V35.765C41.4525 36.2589 38.5497 36.2589 35.6842 35.765V29.2789C37.0484 29.8775 38.5247 30.1778 40.0014 30.1778V30.1778ZM44.3186 2.34375V5.67984C41.7016 7.27578 38.3012 7.27578 35.6842 5.67984V2.34375H44.3186ZM12.8608 77.6562V67.3187C12.8608 66.7058 12.7444 66.1062 12.5147 65.5366L10.7883 61.2572C10.4139 60.3287 10.3933 59.2987 10.7297 58.3572L11.205 57.0286C11.3106 56.7328 11.638 56.5753 11.9336 56.6769L12.5786 56.8991C13.8031 57.3197 15.1361 56.8963 15.8952 55.8455L16.7358 54.6814C16.9848 54.3366 17.0273 53.8839 16.8472 53.4987C15.6561 50.953 16.472 48.3448 18.9941 47.5773C23.5423 47.8108 26.0656 51.9741 26.3853 56.3583C25.2186 57.6306 23.1216 57.9945 21.0416 57.2525C20.1762 56.9442 19.2362 57.2313 18.7012 57.9691L16.7631 60.6544C16.5133 61.0014 16.3812 61.4111 16.3812 61.8392V77.6562H12.8608ZM53.3686 59.1064C55.0927 60.0728 57.3358 60.2594 59.5392 59.5317L61.278 61.9408V77.6562H18.7248V61.9408L20.4636 59.5317C22.667 60.2592 24.9102 60.0725 26.6342 59.1064C27.4453 62.4873 30.4919 65.0086 34.118 65.0086C36.3962 65.0086 38.5339 64.0136 40.0014 62.2744C41.4691 64.0136 43.6066 65.0086 45.8848 65.0086C49.5109 65.0086 52.5575 62.4873 53.3686 59.1064ZM63.6217 77.6562V61.8391C63.6217 61.4108 63.4895 61.0011 63.2391 60.6533L61.3003 57.9669C60.7669 57.2313 59.8269 56.9439 58.9608 57.2527C56.8802 57.995 54.7812 57.6302 53.6152 56.3555C53.9742 50.7908 57.4541 47.7884 61.0111 47.5781C63.5716 48.3587 64.3267 50.9959 63.1558 53.4987C62.9756 53.8839 63.0181 54.3366 63.2672 54.6814L64.108 55.8458C64.8667 56.8964 66.2 57.3197 67.4255 56.8988L68.0684 56.6772C68.3648 56.5752 68.6922 56.7328 68.7981 57.0292L69.273 58.357C69.6095 59.2989 69.5887 60.3289 69.2147 61.257L67.488 65.537C67.2584 66.1064 67.142 66.7058 67.142 67.3189V77.6562H63.6217ZM77.3231 77.2656C77.3231 77.4809 77.148 77.6562 76.9325 77.6562H69.4858V67.3187C69.4858 67.0075 69.545 66.7028 69.6616 66.4136L71.3883 62.1336C71.9773 60.6723 72.01 59.0511 71.4798 57.568L71.0052 56.2403C70.4698 54.7419 68.8102 53.9436 67.3056 54.4609L66.6631 54.6823C66.4214 54.7653 66.1581 54.6813 66.0078 54.4734L65.5516 53.8416C66.4153 51.5189 66.1739 48.9764 64.5314 47.1248C66.4005 46.5855 68.1026 45.5617 69.4892 44.1097C71.6159 41.8825 72.7086 38.9567 72.5661 35.8717C72.3244 30.6384 68.3933 26.2258 63.2186 25.3797C62.5805 25.2756 61.9777 25.7084 61.8731 26.347C61.7686 26.9856 62.2019 27.5883 62.8405 27.6927C66.9283 28.3611 70.0339 31.8464 70.2248 35.9798C70.3376 38.4191 69.4744 40.7314 67.7941 42.4911C66.1126 44.252 63.8464 45.2217 61.4127 45.2217C58.3941 45.2217 55.705 46.5725 53.8406 49.0252C52.1627 51.2328 51.2384 54.1758 51.2384 57.3116C51.2384 60.2636 48.8369 62.6652 45.8848 62.6652C44.2734 62.6652 42.7628 61.9491 41.7405 60.7005C41.3137 60.1794 40.6798 59.8805 40.0014 59.8805C39.323 59.8805 38.6892 60.1794 38.2623 60.7006C37.24 61.9492 35.7294 62.6653 34.118 62.6653C31.1659 62.6653 28.7644 60.2638 28.7644 57.3117C28.7644 54.1759 27.8402 51.233 26.1622 49.0253C24.2978 46.5727 21.6087 45.2219 18.5902 45.2219C16.1564 45.2219 13.8902 44.252 12.2087 42.4913C10.5284 40.7313 9.66531 38.4188 9.77797 35.9797C9.98406 31.5164 13.6392 27.8317 18.0994 27.5909C21.4148 27.4117 24.5206 29.0781 26.2003 31.9392C28.0794 35.1402 31.3208 37.3645 35.0934 38.042C38.35 38.6269 41.6527 38.6269 44.9097 38.042C48.682 37.3645 51.9234 35.1402 53.8025 31.9392C54.7861 30.2637 56.3164 28.9414 58.1116 28.2159C58.7117 27.9734 59.0016 27.2905 58.7592 26.6903C58.5166 26.0905 57.8339 25.8002 57.2336 26.0428C54.9616 26.9609 53.0252 28.6336 51.7812 30.7525C50.6208 32.7291 48.8155 34.2489 46.6622 35.1127V2.34375H76.9323C77.1478 2.34375 77.323 2.51906 77.323 2.73438V77.2656H77.3231Z" fill="#0098D0"/>
<path d="M48.8966 40.0861C42.9105 43.0308 37.0905 43.031 31.1039 40.0861C30.2527 39.6671 29.2538 39.815 28.5598 40.4627C27.8647 41.1111 27.6477 42.0986 28.0072 42.9785C29.4931 46.6152 32.2589 53.3846 40.0003 53.3846C47.7417 53.3846 50.5076 46.615 51.9934 42.9783C52.3528 42.0986 52.1359 41.1111 51.4406 40.4627C50.7462 39.8152 49.7478 39.6675 48.8966 40.0861V40.0861ZM40.0002 51.0408C34.3881 51.0408 32.0906 46.7416 30.2533 42.2789C36.7211 45.4004 43.2777 45.4007 49.747 42.2789C47.9101 46.7408 45.6126 51.0408 40.0002 51.0408Z" fill="#0098D0"/>
<path d="M8.75391 7.95096H12.0469C12.6942 7.95096 13.2188 7.42627 13.2188 6.77908C13.2188 6.1319 12.6942 5.60721 12.0469 5.60721H8.75391C8.10656 5.60721 7.58203 6.1319 7.58203 6.77908C7.58203 7.42627 8.10656 7.95096 8.75391 7.95096V7.95096Z" fill="#0098D0"/>
<path d="M8.75391 12.9633H18.9156C19.563 12.9633 20.0875 12.4386 20.0875 11.7914C20.0875 11.1443 19.563 10.6196 18.9156 10.6196H8.75391C8.10656 10.6196 7.58203 11.1443 7.58203 11.7914C7.58203 12.4386 8.10656 12.9633 8.75391 12.9633V12.9633Z" fill="#0098D0"/>
<path d="M8.75391 17.9755H18.9156C19.563 17.9755 20.0875 17.4508 20.0875 16.8037C20.0875 16.1565 19.563 15.6318 18.9156 15.6318H8.75391C8.10656 15.6318 7.58203 16.1565 7.58203 16.8037C7.58203 17.4508 8.10656 17.9755 8.75391 17.9755V17.9755Z" fill="#0098D0"/>
</svg>

<svg width="80" height="80" fill="none" xmlns="http://www.w3.org/2000/svg"><path d="M76.933 0H3.07A2.738 2.738 0 00.336 2.734v21.26a1.172 1.172 0 102.344 0V2.734a.39.39 0 01.39-.39h30.27v32.769c-2.153-.864-3.958-2.384-5.119-4.36a11.144 11.144 0 00-10.248-5.502 11.12 11.12 0 00-7.302 3.292 11.125 11.125 0 00-3.234 7.328 11.08 11.08 0 003.077 8.238 11.082 11.082 0 004.958 3.016c-1.643 1.851-1.884 4.394-1.02 6.716-.287.304-.514 1.047-1.111.842l-.645-.222a2.93 2.93 0 00-3.698 1.779l-.475 1.328a6.42 6.42 0 00.092 4.566l1.726 4.28c.117.289.176.593.176.905v10.337H3.07a.391.391 0 01-.39-.39V29.463a1.172 1.172 0 10-2.344 0v47.803A2.738 2.738 0 003.07 80h73.863a2.738 2.738 0 002.734-2.734V2.734A2.738 2.738 0 0076.933 0zM35.684 18.797c1.364.599 2.84.9 4.317.9 1.477 0 2.953-.301 4.318-.9v7.846c-2.617 1.596-6.018 1.596-8.635 0v-7.846zm8.635-2.636c-2.617 1.596-6.018 1.596-8.635 0V8.316a10.75 10.75 0 004.317.899c1.477 0 2.953-.3 4.318-.9v7.846zM40 30.178c1.477 0 2.953-.3 4.318-.9v6.487a25.343 25.343 0 01-8.635 0v-6.486a10.75 10.75 0 004.317.899zm4.32-27.834V5.68c-2.617 1.596-6.018 1.596-8.635 0V2.344h8.635zM12.86 77.656V67.32c0-.613-.117-1.213-.346-1.782l-1.727-4.28a4.078 4.078 0 01-.058-2.9l.475-1.328a.578.578 0 01.729-.352l.645.222a2.905 2.905 0 003.316-1.053l.84-1.165c.25-.344.292-.797.112-1.182-1.19-2.546-.375-5.154 2.147-5.922 4.548.234 7.072 4.397 7.391 8.781-1.166 1.273-3.263 1.637-5.343.895a2.026 2.026 0 00-2.34.716l-1.939 2.685c-.25.347-.382.757-.382 1.185v15.817h-3.52zm40.508-18.55c1.724.967 3.967 1.153 6.17.426l1.739 2.409v15.715H18.725V61.941l1.739-2.41c2.203.728 4.446.541 6.17-.425.811 3.381 3.858 5.903 7.484 5.903a7.671 7.671 0 005.883-2.735 7.672 7.672 0 005.884 2.735c3.626 0 6.672-2.522 7.484-5.903zm10.253 18.55V61.84c0-.428-.133-.838-.383-1.186L61.3 57.967a2.025 2.025 0 00-2.34-.714c-2.08.742-4.179.377-5.345-.898.36-5.564 3.84-8.567 7.396-8.777 2.56.78 3.316 3.418 2.145 5.92-.18.386-.138.839.111 1.183l.841 1.165a2.905 2.905 0 003.317 1.053l.643-.222a.578.578 0 01.73.352l.475 1.328a4.08 4.08 0 01-.058 2.9l-1.727 4.28a4.743 4.743 0 00-.346 1.782v10.337h-3.52zm13.701-.39a.39.39 0 01-.39.39h-7.447V67.32c0-.312.059-.616.176-.905l1.726-4.28a6.42 6.42 0 00.092-4.566l-.475-1.328a2.931 2.931 0 00-3.7-1.78l-.642.222a.574.574 0 01-.655-.209l-.456-.631c.863-2.323.622-4.866-1.02-6.717a11.084 11.084 0 004.957-3.015 11.08 11.08 0 003.077-8.238c-.242-5.234-4.173-9.646-9.347-10.492a1.172 1.172 0 00-.379 2.313c4.088.668 7.194 4.153 7.385 8.287a8.757 8.757 0 01-2.43 6.511 8.746 8.746 0 01-6.382 2.73c-3.019 0-5.708 1.352-7.572 3.804-1.678 2.208-2.603 5.15-2.603 8.287a5.36 5.36 0 01-5.353 5.353A5.338 5.338 0 0141.74 60.7a2.238 2.238 0 00-1.739-.82c-.678 0-1.312.3-1.739.82a5.338 5.338 0 01-4.144 1.965 5.36 5.36 0 01-5.354-5.353c0-3.136-.924-6.079-2.602-8.287-1.864-2.452-4.553-3.803-7.572-3.803-2.434 0-4.7-.97-6.381-2.73a8.759 8.759 0 01-2.431-6.512c.206-4.464 3.861-8.148 8.321-8.39a8.81 8.81 0 018.101 4.35c1.88 3.2 5.12 5.424 8.893 6.102 3.257.585 6.56.585 9.817 0 3.772-.678 7.013-2.902 8.893-6.103a8.886 8.886 0 014.309-3.723 1.172 1.172 0 00-.878-2.173 11.243 11.243 0 00-5.453 4.71c-1.16 1.976-2.965 3.496-5.119 4.36V2.343h30.27c.216 0 .391.176.391.391v74.532z" fill="#0098D0"/><path d="M48.897 40.086c-5.986 2.945-11.806 2.945-17.793 0a2.247 2.247 0 00-2.544.377 2.25 2.25 0 00-.553 2.515C29.493 46.615 32.26 53.385 40 53.385c7.742 0 10.508-6.77 11.993-10.407a2.25 2.25 0 00-.552-2.515 2.248 2.248 0 00-2.544-.377zM40 51.041c-5.612 0-7.91-4.3-9.747-8.762 6.468 3.121 13.025 3.122 19.494 0C47.91 46.74 45.613 51.04 40 51.04zM8.754 7.951h3.293a1.172 1.172 0 100-2.344H8.754a1.172 1.172 0 100 2.344zm0 5.012h10.162a1.172 1.172 0 100-2.343H8.754a1.172 1.172 0 100 2.343zm0 5.013h10.162a1.172 1.172 0 100-2.344H8.754a1.172 1.172 0 100 2.344z" fill="#0098D0"/></svg>
